recipes/facebook/icon.svg

<svg clip-rule="evenodd" fill-rule="evenodd" stroke-linejoin="round" stroke-miterlimit="2" viewBox="0 0 1024 1024" xmlns="http://www.w3.org/2000/svg"><g fill-rule="nonzero"><path d="m1024 512c0-282.77-229.23-512-512-512s-512 229.23-512 512c0 255.554 187.231 467.37 432 505.78v-357.78h-130v-148h130v-112.8c0-128.32 76.438-199.2 193.39-199.2 56.017 0 114.61 10 114.61 10v126h-64.562c-63.603 0-83.438 39.467-83.438 79.957v96.043h142l-22.7 148h-119.3v357.78c244.769-38.41 432-250.226 432-505.78z" fill="#1877f2"/><path d="m711.3 660 22.7-148h-142v-96.043c0-40.49 19.835-79.957 83.438-79.957h64.562v-126s-58.593-10-114.61-10c-116.952 0-193.39 70.88-193.39 199.2v112.8h-130v148h130v357.78c26.067 4.09 52.784 6.22 80 6.22s53.933-2.13 80-6.22v-357.78z" fill="#fff"/></g></svg>

<svg clip-rule="evenodd" fill-rule="evenodd" stroke-linejoin="round" stroke-miterlimit="2" viewBox="0 0 1024 1024" xmlns="http://www.w3.org/2000/svg"><g fill-rule="nonzero"><path d="M1024 512C1024 229.23 794.77 0 512 0S0 229.23 0 512c0 255.554 187.231 467.37 432 505.78V660H302V512h130V399.2C432 270.88 508.438 200 625.39 200 681.407 200 740 210 740 210v126h-64.562C611.835 336 592 375.467 592 415.957V512h142l-22.7 148H592v357.78c244.769-38.41 432-250.226 432-505.78z" fill="#1877f2"/><path d="M711.3 660 734 512H592v-96.043c0-40.49 19.835-79.957 83.438-79.957H740V210s-58.593-10-114.61-10C508.438 200 432 270.88 432 399.2V512H302v148h130v357.78c26.067 4.09 52.784 6.22 80 6.22s53.933-2.13 80-6.22V660z" fill="#fff"/></g></svg>
